X:3335
T:Connaughtman's Rambles
M:6/8
L:1/8
R:Jig
Z:Seattle From O'Neill's
K:D
|:A|FAA dAA|BAB dAA|FAA dfe|dBB B2G|FAA dAA|BAB def|gfe dfe|dBB B2:|
:
e|fbb faa|fed ede|fbb faa|fed e2e|fbb faa|fef def|gfe dfe|dBB B2:|


